src/assets/flowbite_icons/upload.svg

<svg width="20" height="21" viewBox="0 0 20 21" fill="none" xmlns="http://www.w3.org/2000/svg">

<path d="M14.707 4.90371L10.707 0.801308C10.6141 0.705798 10.5038 0.630021 10.3823 0.578317C10.2608 0.526614 10.1305 0.5 9.999 0.5C9.86747 0.5 9.73722 0.526614 9.61573 0.578317C9.49424 0.630021 9.38389 0.705798 9.291 0.801308L5.291 4.90371C5.10349 5.09629 4.99826 5.35737 4.99844 5.62953C4.99863 5.90169 5.10423 6.16262 5.292 6.35493C5.47977 6.54724 5.73434 6.65517 5.99971 6.65498C6.26507 6.65478 6.51949 6.54648 6.707 6.3539L9 4.0022V12.808C9 13.08 9.10536 13.3409 9.29289 13.5332C9.48043 13.7255 9.73478 13.8336 10 13.8336C10.2652 13.8336 10.5196 13.7255 10.7071 13.5332C10.8946 13.3409 11 13.08 11 12.808V4.0022L13.293 6.3539C13.4816 6.54073 13.7342 6.6441 13.9964 6.64176C14.2586 6.63943 14.5094 6.53157 14.6948 6.34141C14.8802 6.15126 14.9854 5.89402 14.9877 5.62511C14.99 5.35621 14.8892 5.09714 14.707 4.90371Z" fill="currentColor"/>
<path d="M18 12.2952H13V12.808C13 13.624 12.6839 14.4066 12.1213 14.9836C11.5587 15.5606 10.7956 15.8848 10 15.8848C9.20435 15.8848 8.44129 15.5606 7.87868 14.9836C7.31607 14.4066 7 13.624 7 12.808V12.2952H2C1.46957 12.2952 0.960859 12.5113 0.585786 12.896C0.210714 13.2807 0 13.8024 0 14.3464V18.4488C0 18.9928 0.210714 19.5145 0.585786 19.8992C0.960859 20.2839 1.46957 20.5 2 20.5H18C18.5304 20.5 19.0391 20.2839 19.4142 19.8992C19.7893 19.5145 20 18.9928 20 18.4488V14.3464C20 13.8024 19.7893 13.2807 19.4142 12.896C19.0391 12.5113 18.5304 12.2952 18 12.2952ZM15.5 18.4488C15.2033 18.4488 14.9133 18.3586 14.6666 18.1895C14.42 18.0205 14.2277 17.7802 14.1142 17.4991C14.0007 17.218 13.9709 16.9087 14.0288 16.6103C14.0867 16.3119 14.2296 16.0377 14.4393 15.8226C14.6491 15.6074 14.9164 15.4609 15.2074 15.4016C15.4983 15.3422 15.7999 15.3727 16.074 15.4891C16.3481 15.6055 16.5824 15.8027 16.7472 16.0557C16.912 16.3087 17 16.6061 17 16.9104C17 17.3184 16.842 17.7097 16.5607 17.9982C16.2794 18.2867 15.8978 18.4488 15.5 18.4488Z" fill="currentColor"/>

</svg>

<svg viewBox="0 0 20 21" fill="none" xmlns="http://www.w3.org/2000/svg"><path d="m14.707 4.904-4-4.103A1 1 0 0 0 9.999.5a.98.98 0 0 0-.708.301l-4 4.103a1.04 1.04 0 0 0-.293.726c0 .272.106.533.294.725s.442.3.708.3.52-.109.707-.301L9 4.002v8.806c0 .272.105.533.293.725a.984.984 0 0 0 1.414 0 1.04 1.04 0 0 0 .293-.725V4.002l2.293 2.352c.189.187.441.29.703.288a1 1 0 0 0 .699-.3c.185-.19.29-.448.293-.717a1.04 1.04 0 0 0-.281-.721" fill="currentColor"/><path d="M18 12.295h-5v.513c0 .816-.316 1.599-.879 2.176a2.96 2.96 0 0 1-2.121.9 2.96 2.96 0 0 1-2.121-.9A3.12 3.12 0 0 1 7 12.808v-.513H2c-.53 0-1.04.216-1.414.601A2.08 2.08 0 0 0 0 14.346v4.103c0 .544.21 1.066.586 1.45.375.385.884.601 1.414.601h16c.53 0 1.04-.216 1.414-.6A2.08 2.08 0 0 0 20 18.449v-4.103c0-.544-.21-1.065-.586-1.45a1.98 1.98 0 0 0-1.414-.6m-2.5 6.154c-.297 0-.587-.09-.833-.26a1.53 1.53 0 0 1-.553-.69 1.58 1.58 0 0 1 .325-1.676 1.48 1.48 0 0 1 1.635-.334c.274.117.508.314.673.567a1.57 1.57 0 0 1-.186 1.942 1.48 1.48 0 0 1-1.061.45" fill="currentColor"/></svg>
